X: 1
T: Waiting for Waffles
C: Debbie Scott
O: Shetland
N: Concord Slow Scottish session
R: air, jig
Z: 2016 John Chambers <jc:trillian.mit.edu>
M: 6/8
L: 1/8
Q: "Swingy"
K: Dm
|:\
"Dm"ADdA cdAG | "Dm"FAG(E- "F"FD)C(A, | "G"G,2)G,(A, (3(B,A,G,)) B,D | "G"GG,F(E DE)FG |
"Dm"ADdA cd2(d | "Dm"A)GFD "F"GFD(B, | "G"G,2)G,(A, (3(B,A,G,)) B,D | "G"GG,FE D4 |]
[|\
"Dm"d2dc gfdc | "Dm"f(dcA) "F"dcA(F | "G"G,2)G,(A, (3(B,A,G,)) B,D | "G"GG,F(E DE)FG |
"Dm"d2(dc) gfdc | "Dm"f(dcA) "F"dcA(F | "G"G,2)G,(A, (3(B,A,G,)) B,D | "G"GG,FE D4 |]

